src/assets/filled/AlignBottom.svg

<svg width="24" height="24" viewBox="0 0 24 24"  xmlns="http://www.w3.org/2000/svg">
<path d="M15.98 19.3799H17.02C18.61 19.3799 19.25 18.7799 19.25 17.2599V5.37988H13.75V17.2599C13.76 18.7799 14.4 19.3799 15.98 19.3799Z" />
<path d="M7.48 14.3799H8.52C10.11 14.3799 10.75 13.7699 10.75 12.2599V5.37988H5.25V12.2599C5.26 13.7699 5.9 14.3799 7.48 14.3799Z" />
<path d="M21.25 6.11988H2.75C2.34 6.11988 2 5.78988 2 5.37988C2 4.96988 2.34 4.62988 2.75 4.62988H21.25C21.66 4.62988 22 4.96988 22 5.37988C22 5.78988 21.66 6.11988 21.25 6.11988Z" />
</svg>

<?xml version="1.0" encoding="UTF-8"?>
<svg width="24" height="24" viewBox="0 0 24 24" xmlns="http://www.w3.org/2000/svg">
 <path d="m15.98 19.38h1.04c1.59 0 2.23-0.6 2.23-2.12v-11.88h-5.5v11.88c0.01 1.52 0.65 2.12 2.23 2.12z"/>
 <path d="m7.48 14.38h1.04c1.59 0 2.23-0.61 2.23-2.12v-6.88h-5.5v6.88c0.01 1.51 0.65 2.12 2.23 2.12z"/>
 <path d="m21.25 6.1199h-18.5c-0.41 0-0.75-0.33-0.75-0.74s0.34-0.75 0.75-0.75h18.5c0.41 0 0.75 0.34 0.75 0.75s-0.34 0.74-0.75 0.74z"/>
</svg>
